X: 19698
T: Jenny Lind
R: polka
M: 2/4
K: Gmajor
FA GB|Af f/e/f|Ge e/d/e|Fd dA/G/|
FA GB|Af f/e/f|ge c/d/e/c/|df d:|
dB B/c/d/B/|AF F/G/A/F/|GE E/F/G/E/|FD DF/A/|
dB B/c/d/B/|AF F/G/A/F/|GE E/F/G/E/|DF D:|
AA dF|AG G/F/G|AA gc|ed d/c/d|
AA dF|AG G/F/G|AA gc|1 df d:|2 df d>d||
|:B/c/d B/c/d|eF F/E/F|eF F/E/F|ge d2|
B/c/d B/c/d/B/|eF F/E/F|eF dF|1 GB G2:|2 G2- G||

